Catalina-light/actions/16/view-filter-rtl.svg

<?xml version="1.0" encoding="UTF-8" standalone="no"?>
<!-- Created with Inkscape (http://www.inkscape.org/) -->

<svg
   xmlns:dc="http://purl.org/dc/elements/1.1/"
   xmlns:cc="http://creativecommons.org/ns#"
   xmlns:rdf="http://www.w3.org/1999/02/22-rdf-syntax-ns#"
   xmlns:svg="http://www.w3.org/2000/svg"
   xmlns="http://www.w3.org/2000/svg"
   xmlns:sodipodi="http://sodipodi.sourceforge.net/DTD/sodipodi-0.dtd"
   xmlns:inkscape="http://www.inkscape.org/namespaces/inkscape"
   width="16"
   height="16"
   viewBox="0 0 4.2333332 4.2333335"
   version="1.1"
   id="svg2435"
   inkscape:version="0.92.3 (2405546, 2018-03-11)"
   sodipodi:docname="view-list-tree.svg">
  <defs
     id="defs2429">
    <clipPath
       clipPathUnits="userSpaceOnUse"
       id="clipPath1064">
      <rect
         style="opacity:1;fill:#0062fd;fill-opacity:1;stroke:none;stroke-width:0;stroke-linecap:round;stroke-linejoin:round;stroke-miterlimit:4;stroke-dasharray:none;stroke-opacity:1"
         id="rect1066"
         width="9.1611977"
         height="8.9131508"
         x="4.7624998"
         y="289.59164"
         rx="0.52916932"
         ry="0.52916932" />
    </clipPath>
  </defs>
  <sodipodi:namedview
     id="base"
     pagecolor="#ffffff"
     bordercolor="#666666"
     borderopacity="1.0"
     inkscape:pageopacity="0.0"
     inkscape:pageshadow="2"
     inkscape:zoom="44.8"
     inkscape:cx="8.6424625"
     inkscape:cy="8.2049408"
     inkscape:document-units="mm"
     inkscape:current-layer="layer1"
     showgrid="true"
     units="px"
     inkscape:window-width="1920"
     inkscape:window-height="1028"
     inkscape:window-x="0"
     inkscape:window-y="26"
     inkscape:window-maximized="1">
    <inkscape:grid
       type="xygrid"
       id="grid2980"
       spacingx="0.13229167"
       spacingy="0.13229167" />
  </sodipodi:namedview>
  <metadata
     id="metadata2432">
    <rdf:RDF>
      <cc:Work
         rdf:about="">
        <dc:format>image/svg+xml</dc:format>
        <dc:type
           rdf:resource="http://purl.org/dc/dcmitype/StillImage" />
        <dc:title></dc:title>
      </cc:Work>
    </rdf:RDF>
  </metadata>
  <g
     inkscape:label="Capa 1"
     inkscape:groupmode="layer"
     id="layer1"
     transform="translate(0,-292.76665)">
    <path
       style="opacity:1;fill:#000000;fill-opacity:0.47450981;stroke:none;stroke-width:0.37795275;stroke-linejoin:round;stroke-miterlimit:4;stroke-dasharray:none;stroke-opacity:1"
       d="M 2.5 3 C 1.6689882 3 1 3.6689882 1 4.5 L 1 11.5 C 1 12.331012 1.6689882 13 2.5 13 L 13.5 13 C 14.331012 13 15 12.331012 15 11.5 L 15 4.5 C 15 3.6689882 14.331012 3 13.5 3 L 2.5 3 z M 2.5 4 L 13.5 4 C 13.777003 4 14 4.2229967 14 4.5 L 14 11.5 C 14 11.777003 13.777003 12 13.5 12 L 2.5 12 C 2.2229967 12 2 11.777003 2 11.5 L 2 4.5 C 2 4.2229967 2.2229967 4 2.5 4 z "
       transform="matrix(0.26458333,0,0,0.26458333,0,292.76665)"
       id="rect2986" />
    <path
       style="fill:#000000;fill-opacity:0.47450981;stroke:none;stroke-width:0.26458332px;stroke-linecap:butt;stroke-linejoin:miter;stroke-opacity:1"
       d="m 1.4111112,293.82498 v 2.11667 h 0.2645833 v -2.11667 z"
       id="path2989"
       inkscape:connector-curvature="0" />
    <path
       inkscape:connector-curvature="0"
       id="path2991"
       d="m 2.5576391,293.82498 v 2.11667 h 0.2645833 v -2.11667 z"
       style="fill:#000000;fill-opacity:0.47450981;stroke:none;stroke-width:0.26458332px;stroke-linecap:butt;stroke-linejoin:miter;stroke-opacity:1" />
  </g>
</svg>

<svg width="16" height="16" version="1.1" viewBox="0 0 4.2333 4.2333" xmlns="http://www.w3.org/2000/svg">
<g transform="translate(0 -292.77)" fill-opacity=".47451">
<path transform="matrix(.26458 0 0 .26458 0 292.77)" d="m2.5 3c-0.83101 0-1.5 0.66899-1.5 1.5v7c0 0.83101 0.66899 1.5 1.5 1.5h11c0.83101 0 1.5-0.66899 1.5-1.5v-7c0-0.83101-0.66899-1.5-1.5-1.5h-11zm0 1h11c0.277 0 0.5 0.223 0.5 0.5v7c0 0.277-0.223 0.5-0.5 0.5h-11c-0.277 0-0.5-0.223-0.5-0.5v-7c0-0.277 0.223-0.5 0.5-0.5z"/>
<path d="m1.4111 293.82v2.1167h0.26458v-2.1167z"/>
<path d="m2.5576 293.82v2.1167h0.26458v-2.1167z"/>
</g>
</svg>
